X:1
T:Litany (Hervey), 77.76
T:Frederick Alfred John Hervey, 1875
T:Litany (Hervey), 77.76
T:Public Domain
C:Frederick Alfred John Hervey, 1875
Z:Public Domain
%%score 1 ( 2 3 )
L:1/8
M:4/4
K:A
V:1 treble 
V:2 bass 
V:3 bass 
V:1
 [CE]2 [CF]2 [DG]2 [DA]2 | [DA]2 [DF]2 [DG]4 | [DB]2 [Fd]2 [Ec]2 [DB]2 | [CA]2 [^B,F]2 [CE]4 | %4
 [A,C]2 [B,D]2 [CE]2 [DF]2 | [C=G]2 [CE]2 [DF]4 | [=CG]2 [CF]2 [^CE]2 [CA]2 | [DB]4 [CA]4 |] %8
V:2
 [A,,E,]2 [A,,E,]2 [A,,E,]2 [A,,E,]2 | [B,,E,]2 [B,,E,]2 E,4 | %2
 [G,,E,]2 [G,,E,]2 [G,,E,]2 [G,,E,]2 | [A,,E,]2 [A,,^D,]2 [A,,E,]4 | %4
 [A,,A,]2 [A,,G,]2 [A,,=G,]2 [A,,F,]2 | [A,,E,]2 [A,,A,]2 [D,A,]4 | %6
 [^D,A,]2 [D,A,]2 [E,A,]2 [E,A,]2 | [E,G,]4 [A,,A,]4 |] %8
V:3
 x8 | x4 E,4 | x8 | x8 | x8 | x8 | x8 | x8 |] %8

